X:1
T:Title
%%score { ( 1 4 ) | ( 2 3 ) }
L:1/8
M:3/4
K:G
V:1 treble nm="Grand Piano"
V:4 treble 
V:2 bass 
V:3 bass 
V:1
 z2 z2[Q:1/4=110] D2 | G2 [DG]2 A2 | B2 B2 GB | [CEA]2 [B,DG]2 [A,DF]2 | [B,DG]4 [B,D]2 | %5
 [B,DG]2 [G,DG]2 A2 | B2 B2 GB | [CEA]2 [B,DG]2 [A,DF]2 | [B,DG]4 [GB][Ac] | [Bd]2 [Bd]2 [Ac]2 | %10
 B2 B2 AB | [DAc]2 [DAc]2 [DGB]2 | [DFA]4 Bc | d2 d2 c2 | B2 B2 AB | c2 c2 B2 |[M:2/4] [FA]4 | %17
[M:1/4] D2 |[M:3/4] G2 [DG]2 A2 | B4 GA | BB B2 c2 | d4 dd | z2 z2 [Ge]2 | d2 B2 z B | %24
 [CEA]2 [B,DG]2 [A,DF]2 |[M:2/4] [B,DG]4 |] %26
V:2
 z2 z2 [G,B,]2 | [G,B,D]2 [B,,G,]2 [D,F,D]2 | [G,D]2 [G,D]2 [G,B,D][G,D] | C,2 D,2 D,2 | G,,4 G,2 | %5
 G,2 B,,2 [D,F,D]2 | [G,D]2 [G,D]2 [G,B,D][G,D] | C,2 D,2 D,2 | G,,4 [G,D]2 | %9
 [G,D]2 [G,D]2 [F,D]2 | [G,DG]2 [G,DG]2 FG | F,2 F,2 G,2 | D,4[K:treble] [G,DG][A,DG] | %13
 [B,DG]2 [B,DG]2 [A,DF]2 | [G,DG]2 [G,DG]2 [F,D][G,G] | [A,DF]2 [A,DF]2 [G,DG]2 | %16
[M:2/4][K:bass] [D,D]4 |[M:1/4] [D,C]2 |[M:3/4] [G,B,D]2 [B,,G,]2 [D,F,D]2 | [G,D]4 [B,D][A,DF] | %20
 [G,DG][G,DG] [G,DG]2 [G,A,G]2 | [G,B,G]4 [G,B,G][G,B,G] | [C,C]2 [E,C]2 .[C,C]2 | %23
 [G,B,G]2 [G,DG]2[K:bass] [G,D]2 | C,2 D,2 D,2 |[M:2/4] G,,4 |] %26
V:3
 x6 | x6 | x6 | x6 | x6 | x6 | x6 | x6 | x6 | x6 | z2 z2 [G,D]2 | x6 | x4[K:treble] x2 | x6 | x6 | %15
 x6 |[M:2/4][K:bass] x4 |[M:1/4] x2 |[M:3/4] x6 | x6 | x6 | x6 | x6 | x4[K:bass] x2 | x6 | %25
[M:2/4] x4 |] %26
V:4
 x6 | x6 | x6 | x6 | x6 | x6 | x6 | x6 | x6 | x6 | x6 | x6 | x6 | x6 | x6 | x6 |[M:2/4] x4 | %17
[M:1/4] x2 |[M:3/4] x6 | x6 | x6 | x6 | [Ge]2 [Gc]2 z E, | z2 z2 G2 | x6 |[M:2/4] x4 |] %26

